public/images/home/python.svg

<svg width="171" height="50" viewBox="0 0 171 50" fill="none" xmlns="http://www.w3.org/2000/svg">
<path d="M64.4748 21.2885C64.4748 16.0079 62.9795 13.2969 59.9884 13.1486C58.7981 13.092 57.6366 13.2827 56.5061 13.7248C55.6039 14.0497 54.9967 14.3717 54.6773 14.697V27.3012C56.5904 28.5102 58.2892 29.0723 59.7709 28.9838C62.9053 28.7746 64.4748 26.2122 64.4748 21.2885ZM68.1642 21.5075C68.1642 24.1902 67.5393 26.4171 66.2824 28.1878C64.8818 30.1921 62.9406 31.2241 60.4588 31.2807C58.5878 31.3405 56.6603 30.7505 54.6769 29.5133V40.969L51.4683 39.8166V14.3891C51.9949 13.7389 52.6727 13.1805 53.4938 12.7065C55.4037 11.586 57.7238 11.0101 60.4552 10.9819L60.5005 11.0275C62.9967 10.996 64.9199 12.028 66.2716 14.1204C67.5321 16.0398 68.1642 18.4999 68.1642 21.5075ZM87.7733 29.0259C87.7733 32.6242 87.4153 35.1159 86.6993 36.5015C85.9798 37.8867 84.6105 38.9931 82.5886 39.817C80.9492 40.4672 79.1761 40.8207 77.2738 40.8809L76.7433 38.8451C78.6777 38.5804 80.0398 38.315 80.8296 38.0499C82.3847 37.5197 83.4519 36.7071 84.0382 35.6181C84.5085 34.7311 84.7401 33.038 84.7401 30.5322V29.6909C82.5461 30.6951 80.2469 31.1933 77.8425 31.1933C76.2625 31.1933 74.8691 30.6951 73.6684 29.6909C72.3203 28.5987 71.6465 27.2135 71.6465 25.5345V12.0882L74.8551 10.9819V24.5155C74.8551 25.9609 75.3182 27.0746 76.2449 27.8557C77.1716 28.6368 78.3723 29.0117 79.8431 28.9831C81.314 28.9512 82.89 28.3786 84.5644 27.2581V11.4692H87.7729V29.0259H87.7733ZM100.298 31.1041C99.9468 31.134 99.5943 31.1492 99.2416 31.1498C97.4268 31.1498 96.0117 30.7154 95.0012 29.8422C93.9935 28.9693 93.4882 27.7643 93.4882 26.2264V13.5018H91.2905V11.4696H93.4882V6.07223L96.6932 4.92342V11.4696H100.298V13.5018H96.6932V26.1379C96.6932 27.3505 97.0159 28.2092 97.6616 28.7115C98.2162 29.1249 99.0975 29.3617 100.298 29.4219V31.1041H100.298ZM119.725 30.839H116.517V18.369C116.517 17.1001 116.222 16.0079 115.636 15.0962C114.958 14.0638 114.017 13.5478 112.81 13.5478C111.339 13.5478 109.499 14.3289 107.291 15.8911V30.839H104.083V1.03206L107.291 0.0141602V13.5902C109.341 12.0879 111.581 11.3351 114.014 11.3351C115.713 11.3351 117.089 11.9113 118.142 13.0601C119.199 14.2085 119.726 15.6402 119.726 17.3511V30.839H119.725ZM136.779 20.7797C136.779 18.7508 136.396 17.0755 135.634 15.7501C134.728 14.1349 133.321 13.2827 131.418 13.1946C127.901 13.3995 126.145 15.9372 126.145 20.8011C126.145 23.0313 126.51 24.8941 127.248 26.3892C128.188 28.2945 129.6 29.2348 131.482 29.2028C135.013 29.1742 136.779 26.3678 136.779 20.7797ZM140.293 20.8007C140.293 23.6887 139.559 26.0922 138.095 28.0112C136.483 30.1605 134.258 31.2383 131.418 31.2383C128.603 31.2383 126.409 30.1602 124.826 28.0112C123.39 26.0922 122.673 23.6887 122.673 20.8007C122.673 18.0865 123.449 15.803 125.001 13.9438C126.64 11.9715 128.796 10.9819 131.46 10.9819C134.124 10.9819 136.294 11.9715 137.965 13.9438C139.517 15.803 140.293 18.0865 140.293 20.8007ZM158.687 30.839H155.478V17.6622C155.478 16.2168 155.047 15.089 154.183 14.276C153.32 13.4666 152.168 13.0742 150.732 13.1058C149.209 13.1341 147.759 13.6359 146.383 14.6081V30.839H143.175V14.2089C145.021 12.8556 146.72 11.9715 148.272 11.5581C149.735 11.173 151.027 10.9819 152.14 10.9819C152.902 10.9819 153.618 11.0558 154.292 11.2045C155.552 11.4979 156.578 12.0422 157.367 12.8411C158.248 13.7248 158.687 14.7847 158.687 16.0257V30.839Z" fill="#646464"/>
<path d="M19.7792 1.15148C18.1283 1.15909 16.5519 1.30088 15.165 1.54819C11.0787 2.27526 10.3368 3.79649 10.3368 6.60251V10.3082H19.9932V11.5433H6.71259C3.9063 11.5433 1.44863 13.2419 0.680064 16.4729C-0.206628 20.1764 -0.245884 22.4874 0.680064 26.3545C1.36651 29.2331 3.00592 31.2841 5.81221 31.2841H9.13245V26.8419C9.13245 23.6326 11.8901 20.8019 15.165 20.8019H24.8102C27.4951 20.8019 29.6384 18.5761 29.6384 15.8611V6.60214C29.6384 3.96729 27.4306 1.9877 24.8102 1.54783C23.151 1.27006 21.4302 1.1435 19.7792 1.15148ZM14.557 4.13156C15.5547 4.13156 16.369 4.96524 16.369 5.99003C16.369 7.01119 15.5543 7.83726 14.557 7.83726C13.5562 7.83726 12.7451 7.01155 12.7451 5.99003C12.7451 4.96524 13.5562 4.13156 14.557 4.13156Z" fill="url(#paint0_linear)"/>
<path d="M30.8427 11.5428V15.8602C30.8427 19.2077 28.0242 22.0249 24.8102 22.0249H15.165C12.5229 22.0249 10.3368 24.3015 10.3368 26.9657V36.224C10.3368 38.8592 12.6122 40.4091 15.165 41.1648C18.2216 42.0699 21.1528 42.2335 24.8102 41.1648C27.2412 40.4562 29.6383 39.0296 29.6383 36.224V32.5187H19.9932V31.2835H34.4665C37.2732 31.2835 38.3187 29.3123 39.2947 26.354C40.3031 23.3086 40.2603 20.3793 39.2947 16.4724C38.6011 13.6594 37.2764 11.5428 34.4665 11.5428H30.8427ZM25.4177 34.9889C26.4186 34.9889 27.2297 35.8146 27.2297 36.8361C27.2297 37.8609 26.4186 38.6946 25.4177 38.6946C24.4201 38.6946 23.6058 37.8609 23.6058 36.8361C23.6058 35.8149 24.4205 34.9889 25.4177 34.9889Z" fill="url(#paint1_linear)"/>
<path d="M164.935 8.58938H165.498V5.03708H166.83V4.61353H163.602V5.03708H164.935V8.58938H164.935ZM167.329 8.58938H167.81V5.34495L168.853 8.58902H169.388L170.475 5.35583V8.58938H170.999V4.61389H170.306L169.117 8.02005L168.105 4.61389H167.329V8.58938Z" fill="#646464"/>
<path opacity="0.444" d="M33.0434 47.4591C33.0434 48.8544 27.2497 49.9855 20.1025 49.9855C12.9557 49.9855 7.16193 48.8544 7.16193 47.4591C7.16193 46.0637 12.9557 44.9323 20.1025 44.9323C27.2497 44.9323 33.0434 46.0637 33.0434 47.4591Z" fill="url(#paint2_radial)"/>
<defs>
<linearGradient id="paint0_linear" x1="-0.952141" y1="2.30862" x2="21.4437" y2="21.2601" gradientUnits="userSpaceOnUse">
<stop stop-color="#5A9FD4"/>
<stop offset="1" stop-color="#306998"/>
</linearGradient>
<linearGradient id="paint1_linear" x1="29.6708" y1="33.3203" x2="21.6089" y2="22.1016" gradientUnits="userSpaceOnUse">
<stop stop-color="#FFD43B"/>
<stop offset="1" stop-color="#FFE873"/>
</linearGradient>
<radialGradient id="paint2_radial" cx="0" cy="0" r="1" gradientUnits="userSpaceOnUse" gradientTransform="translate(20.0984 47.401) rotate(-90) scale(2.52606 11.0297)">
<stop stop-color="#B8B8B8" stop-opacity="0.498"/>
<stop offset="1" stop-color="#7F7F7F" stop-opacity="0"/>
</radialGradient>
</defs>
</svg>

<svg xmlns="http://www.w3.org/2000/svg" width="171" height="50" fill="none" xmlns:v="https://vecta.io/nano"><path d="M64.475 21.289c0-5.281-1.495-7.992-4.486-8.14a8.37 8.37 0 0 0-3.482.576c-.902.325-1.509.647-1.829.972v12.604c1.913 1.209 3.612 1.771 5.094 1.683 3.134-.209 4.704-2.772 4.704-7.695zm3.689.219c0 2.683-.625 4.91-1.882 6.68-1.401 2.004-3.342 3.036-5.824 3.093-1.871.06-3.798-.53-5.782-1.767v11.456l-3.209-1.152V14.389c.527-.65 1.204-1.209 2.026-1.683 1.91-1.12 4.23-1.696 6.961-1.725l.045.046c2.496-.031 4.419 1.001 5.771 3.093 1.26 1.919 1.893 4.38 1.893 7.387zm19.609 7.518c0 3.598-.358 6.09-1.074 7.476s-2.089 2.492-4.111 3.316c-1.639.65-3.412 1.004-5.315 1.064l-.53-2.036c1.934-.265 3.296-.53 4.086-.795 1.555-.53 2.622-1.343 3.209-2.432.47-.887.702-2.58.702-5.086v-.841a16.38 16.38 0 0 1-6.898 1.502 6.31 6.31 0 0 1-4.174-1.502c-1.348-1.092-2.022-2.477-2.022-4.156V12.088l3.209-1.106v13.534c0 1.445.463 2.559 1.39 3.34s2.127 1.156 3.598 1.127 3.047-.605 4.721-1.725V11.469h3.209v17.557h0zm12.525 2.078l-1.056.046c-1.815 0-3.23-.434-4.24-1.308s-1.513-2.078-1.513-3.616V13.502h-2.198V11.47h2.198V6.072l3.205-1.149v6.546h3.605v2.032h-3.605v12.636c0 1.213.323 2.071.968 2.574.555.413 1.436.65 2.636.71v1.682h0zm19.427-.265h-3.208v-12.47c0-1.269-.295-2.361-.881-3.273-.678-1.032-1.619-1.548-2.826-1.548-1.471 0-3.311.781-5.519 2.343v14.948h-3.208V1.032l3.208-1.018V13.59c2.05-1.502 4.29-2.255 6.723-2.255 1.699 0 3.075.576 4.128 1.725s1.584 2.58 1.584 4.291v13.488h-.001zm17.054-10.059c0-2.029-.383-3.704-1.145-5.03-.906-1.615-2.313-2.467-4.216-2.556-3.517.205-5.273 2.743-5.273 7.607 0 2.23.365 4.093 1.103 5.588.94 1.905 2.352 2.846 4.234 2.814 3.531-.029 5.297-2.835 5.297-8.423zm3.514.021c0 2.888-.734 5.291-2.198 7.211-1.612 2.149-3.837 3.227-6.677 3.227-2.815 0-5.009-1.078-6.592-3.227-1.436-1.919-2.153-4.322-2.153-7.21 0-2.714.776-4.998 2.328-6.857 1.639-1.972 3.795-2.962 6.459-2.962s4.834.99 6.505 2.962c1.552 1.859 2.328 4.143 2.328 6.857zm18.394 10.038h-3.209V17.662c0-1.445-.431-2.573-1.295-3.386s-2.015-1.202-3.451-1.17c-1.523.028-2.973.53-4.349 1.502v16.231h-3.208v-16.63c1.846-1.353 3.545-2.237 5.097-2.651 1.463-.385 2.755-.576 3.868-.576.762 0 1.478.074 2.152.223 1.26.293 2.286.838 3.075 1.637.881.884 1.32 1.944 1.32 3.185v14.813z" fill="#646464"/><path d="M19.779 1.151c-1.651.008-3.227.149-4.614.397-4.086.727-4.828 2.248-4.828 5.054v3.706h9.656v1.235H6.713c-2.806 0-5.264 1.699-6.033 4.93-.887 3.704-.926 6.015 0 9.882.686 2.879 2.326 4.93 5.132 4.93h3.32v-4.442c0-3.209 2.758-6.04 6.033-6.04h9.645c2.685 0 4.828-2.226 4.828-4.941V6.602c0-2.635-2.208-4.614-4.828-5.054a29.92 29.92 0 0 0-5.031-.396zm-5.222 2.98c.998 0 1.812.834 1.812 1.858s-.815 1.847-1.812 1.847-1.812-.826-1.812-1.847.811-1.858 1.812-1.858z" fill="url(#A)"/><path d="M30.843 11.543v4.317c0 3.347-2.818 6.165-6.033 6.165h-9.645c-2.642 0-4.828 2.277-4.828 4.941v9.258c0 2.635 2.275 4.185 4.828 4.941 3.057.905 5.988 1.069 9.645 0 2.431-.709 4.828-2.135 4.828-4.941v-3.705h-9.645v-1.235h14.473c2.807 0 3.852-1.971 4.828-4.93 1.008-3.045.966-5.975 0-9.882-.694-2.813-2.018-4.93-4.828-4.93h-3.624zm-5.425 23.446c1.001 0 1.812.826 1.812 1.847s-.811 1.858-1.812 1.858-1.812-.834-1.812-1.858.815-1.847 1.812-1.847z" fill="url(#B)"/><path d="M164.935 8.589h.563V5.037h1.332v-.424h-3.228v.424h1.333v3.552h0zm2.394 0h.481V5.345l1.043 3.244h.535l1.087-3.233v3.234h.524V4.614h-.693l-1.189 3.406-1.012-3.406h-.776v3.975z" fill="#646464"/><path opacity=".444" d="M33.043 47.459c0 1.395-5.794 2.526-12.941 2.526S7.162 48.854 7.162 47.459s5.794-2.527 12.941-2.527 12.941 1.131 12.941 2.527z" fill="url(#C)"/><defs><linearGradient id="A" x1="-.952" y1="2.309" x2="21.444" y2="21.26" gradientUnits="userSpaceOnUse"><stop stop-color="#5a9fd4"/><stop offset="1" stop-color="#306998"/></linearGradient><linearGradient id="B" x1="29.671" y1="33.32" x2="21.609" y2="22.102" gradientUnits="userSpaceOnUse"><stop stop-color="#ffd43b"/><stop offset="1" stop-color="#ffe873"/></linearGradient><radialGradient id="C" cx="0" cy="0" r="1" gradientUnits="userSpaceOnUse" gradientTransform="translate(20.0984 47.401) rotate(-90) scale(2.52606 11.0297)"><stop stop-color="#b8b8b8" stop-opacity=".498"/><stop offset="1" stop-color="#7f7f7f" stop-opacity="0"/></radialGradient></defs></svg>
